X: 37295
T: Skolion Of Seikilos
R: jig
M: 6/8
K: Adorian
A2 e ecA|c/d/ec dBG|c2 d edc|B2 ^A BGE|
A2 e ecA|cec dB/A/G|c2 d ecA|B^AB =A2:|
a2 c edc|abg a^ga|ceb aec|gfa afe
1 aec edc|a2 b g2 a|cee aee|dBc A2:|
2 Aee ecA|c2 e dBG|cB/c/d ecA|AB^G A2||

